X: 12385
T: Fanning's
R: jig
M: 6/8
K: Eminor
G2 B dBG|FEF AFD|EDE GFG|BAB edB|
G2 B dBG|FEF AFD|gfe dBA|1 BGE E2 F:|2 BGE E2 f||
|:geb geb|geb bag|fda fda|fda agf|
eBe geg|baf gef|gfe dBA|1 BGE E2 f:|2 BGE E3||

